!!!Genre:	Gas-nign
!!!Mode:	Minor
!!!Listening/dance:	listening
!!!One_Mode:	yes
**kern
*I"P1
*clefG2
*k[b-e-]
*g:
*M3/4
*>A
4d
=1
2g
8aL
(8qcc/
8b-J)
=2
2cc
8dd
(8qff/
8ee-J)
=3
4cc
(8qdd/
4cc)
(8b-L
8aJ)
=4
2g
4d
=5
2g
8aL
(8qcc/
8b-J)
=6
4cc
4gg
16ffLL
16ee-
16dd
16ccJJ
=7
4dd
(8qee-/
4dd)
(8qee-/
4dd)
=8
2dd
4dd
=9
8ffL
8ggJ
8ffL
8ee-J
8ddL
8ccJ
=10
*^
2gg	2ryy
4f	(20fLL
.	20g
.	20f
.	20en
.	20fJJ)
*v	*v
=11||
8b-L
8cc
8dd
8b-
(8qdd/
8cc)
8fJ
=12
2g
28fLL
28g
28a
28b-
28cc
28dd
28ee-JJ
=13
4.ff
8dd
(16qqdd/LL
16qqff/JJ
20ee-LL
20dd
20cc)
20b-
20aJJ
=14
4.b-
8f
8gL
8a-XJ
=15
4g
(8qa-X/
4g)
(8qa-/
4g)
*>A1
=16
2g
*>A2
=17:|!
2.g
*>bM
*c:
!LO:TX:a:i:t=C-minor
=18
*>B
(8qg/
*^
2dd)	4.dd
.	8cc
4cc	8ccL
.	8bnJ
*v	*v
=19
4bn
4g
8bL
8ddJ
=20
2.cc
=21
(8qg/
8ggL)
8ff#XJ
4gg
12ee-L
12dd
12ccJ
=22
2dd
4cc
=23
4bn
4g
8bL
8ddJ
=24
2.cc
*>eM
*>bM
*B-:
Bb-major
=25
4ee-
4gg
4ee-
=26
4.ff
8ee-
8ddL
8ccJ
=27
4cc
4b-X
8ddL
8ccJ
=28
2b-
4f
=29
4b-
4cc
8dd
(8qff/
8ee-J)
=30
4ff
4gg
12aa-XL
12gg
12ffJ
=31
4ff
4ee-
8ddL
8ccJ
=32
2dd
4f
=33
4b-
4cc
8ddL
8b-J
=34
2cc
12b-L
12a
12gJ
=35
4g
4f
8aL
8gJ
=36
2f
28fLL
28g
28a
28b-
28cc
28dd
28ee-JJ
=37
4.ff
8dd
16qqdd/LL
16qqff/JJ
20ee-LL
20dd
20cc
20b-
20aJJ
=38
4.b-
*>eM
*g:
G-minor
8f
8gL
8a-XJ
=39
4g
(8qa-X/
4g)
(8qa-/
4g)
=40
2.g
=:|!
*-
